lib/logo_updates/nrk-logo-nrk-nyheter-on-dark.svg

<svg width="359" height="70" viewBox="0 0 359 70" fill="none" xmlns="http://www.w3.org/2000/svg">
<path d="M0 56V14.0038H13.7802V56H0ZM32.5283 20.6877L40.4532 56H25.3721L15.9092 14.0038H24.3676C26.3072 13.9786 28.1892 14.6624 29.6607 15.9264C31.1347 17.1373 32.1473 18.8184 32.5283 20.6877ZM42.5233 56V14.0038H56.3035V56H42.5233ZM66.7116 29.9743C65.2267 29.9888 63.7656 29.6003 62.4839 28.8504C61.2193 28.1194 60.1688 27.0689 59.438 25.8041C58.6872 24.5222 58.2986 23.0607 58.3134 21.5751C58.2964 20.0986 58.6853 18.6458 59.438 17.3755C60.1766 16.1245 61.2259 15.0853 62.4839 14.3588C63.766 13.6098 65.2269 13.2213 66.7116 13.2348C68.1877 13.2189 69.6399 13.6078 70.9108 14.3588C72.1562 15.0917 73.1943 16.13 73.9271 17.3755C74.6789 18.6462 75.0677 20.0987 75.0517 21.5751C75.0655 23.0605 74.6769 24.5218 73.9271 25.8041C73.202 27.0633 72.1627 28.113 70.9108 28.8504C69.6398 29.6029 68.1866 29.9918 66.7097 29.9743H66.7116ZM77.1807 56V14.0038H90.9621V56H77.1807ZM108.408 36.9538C108.447 36.9946 108.742 37.4776 109.295 38.403C109.848 39.3283 110.567 40.5114 111.454 41.952C112.341 43.392 113.277 44.9199 114.262 46.536C115.247 48.1521 116.174 49.6803 117.043 51.1202C117.908 52.5602 118.894 54.1867 120 56H104.859C103.912 54.4621 103.055 53.0721 102.286 51.83C101.517 50.5878 100.7 49.2471 99.8334 47.8077C98.9653 46.3698 98.1071 44.9699 97.2587 43.6081C96.4103 42.2464 95.6813 41.0536 95.0714 40.0297C94.459 39.0051 94.0348 38.3149 93.7989 37.9594C93.2139 37.0771 92.8677 36.058 92.7944 35.0019C92.853 33.9883 93.1791 33.0084 93.7397 32.1619C93.9762 31.7676 94.41 31.0675 95.0409 30.062C95.6717 29.0564 96.411 27.8637 97.2587 26.4835C98.1064 25.1034 98.9647 23.6936 99.8334 22.2543C100.702 20.815 101.519 19.4643 102.286 18.2025C103.056 16.9419 103.914 15.5421 104.859 14.0029H120L108.289 33.1082C107.926 33.6755 107.722 34.3292 107.697 35.0019C107.736 35.7081 107.983 36.3871 108.406 36.9538H108.408Z" fill="white"/>
<path d="M166.085 45.9465L140.816 13.9613H136V56.0029H141.589V24L166.918 56.0029H171.734V13.9613H166.086L166.085 45.9465Z" fill="#9FDAF5"/>
<path d="M201.284 26.1002L201.237 48.2756C200.804 48.5273 200.372 48.769 199.949 48.9862C199.226 49.3566 198.482 49.6826 197.719 49.9622C196.997 50.2308 196.25 50.4291 195.49 50.5543C194.713 50.6762 193.928 50.7356 193.142 50.732C191.926 50.7806 190.717 50.5151 189.634 49.9613C188.695 49.4193 187.971 48.5733 187.583 47.5641C187.09 46.2696 186.857 44.8909 186.898 43.5069V25.21L180.834 26.0981V44.6902C180.761 46.935 181.146 49.1711 181.964 51.2639C182.621 52.8955 183.831 54.2467 185.383 55.0832C187.147 55.9454 189.097 56.362 191.06 56.2961C192.7 56.3072 194.329 56.0371 195.877 55.4977C197.404 54.9538 198.845 54.1958 200.157 53.2466C200.519 52.987 200.876 52.7117 201.233 52.4255L201.227 54.9915C201.227 57.9522 200.533 60.2022 199.146 61.7418C197.759 63.2813 195.4 64.0511 192.071 64.0511C191.159 64.0511 190.227 64.0113 189.276 63.9317C188.327 63.8535 187.384 63.7153 186.452 63.5181C185.521 63.3207 184.579 63.074 183.627 62.778C182.675 62.4819 181.724 62.1366 180.773 61.7418L181.428 67.0118C182.221 67.3263 183.053 67.6124 183.924 67.8704C184.796 68.1283 185.687 68.3454 186.6 68.5217C187.511 68.6994 188.463 68.8375 189.454 68.9362C190.445 69.0348 191.456 69.0839 192.487 69.0833C194.638 69.1194 196.779 68.7893 198.818 68.1072C200.544 67.5248 202.132 66.5976 203.485 65.3824C204.749 64.2245 205.735 62.7981 206.37 61.2088C207.042 59.4923 207.375 57.6627 207.351 55.8204L207.291 25.2061L201.284 26.1002Z" fill="#9FDAF5"/>
<path d="M239.452 26.3953C237.706 25.5115 235.762 25.084 233.804 25.1528C232.059 25.1524 230.324 25.4218 228.662 25.9512C226.973 26.486 225.363 27.2431 223.875 28.2023C223.427 28.4895 222.994 28.7944 222.567 29.1191V11.2969L216.502 12.1851V56.003H222.567V33.2493C223.037 32.9927 223.518 32.748 224.022 32.5249C224.864 32.155 225.728 31.8385 226.61 31.5774C227.459 31.3263 228.322 31.1285 229.196 30.9853C230.012 30.8501 230.837 30.7809 231.663 30.7781C232.614 30.758 233.561 30.9084 234.458 31.2222C235.215 31.4944 235.89 31.9527 236.421 32.5545C236.966 33.2076 237.352 33.9778 237.549 34.8046C237.804 35.8507 237.924 36.9248 237.907 38.0012V56.0021H243.971V36.7577C244.05 34.5128 243.665 32.2755 242.84 30.1849C242.169 28.5794 240.976 27.245 239.452 26.3953Z" fill="#9FDAF5"/>
<path d="M276.019 29.6235C274.877 28.1502 273.371 26.9971 271.648 26.2769C269.733 25.4995 267.681 25.1171 265.614 25.1528C263.531 25.1174 261.464 25.5211 259.549 26.3372C257.807 27.0965 256.255 28.2283 255.001 29.6521C253.71 31.1488 252.738 32.8918 252.146 34.775C251.469 36.9301 251.138 39.1784 251.166 41.4365C251.082 44.2897 251.683 47.1217 252.919 49.6968C254.049 51.9283 255.874 53.7356 258.121 54.8485C260.758 56.0856 263.652 56.6842 266.565 56.5953C267.967 56.6068 269.367 56.5177 270.756 56.3288C271.916 56.162 273.061 55.8945 274.175 55.5294C275.279 55.1599 276.353 54.7045 277.386 54.1675L277.801 49.608C277.048 49.8844 276.285 50.1607 275.512 50.437C274.739 50.7133 273.937 50.96 273.104 51.1772C272.265 51.3964 271.41 51.5544 270.548 51.6499C269.679 51.7492 268.806 51.799 267.932 51.7989C266.371 51.8241 264.813 51.655 263.294 51.2956C262.069 51.0036 260.935 50.4136 259.995 49.5784C259.045 48.6775 258.348 47.5445 257.974 46.2921C257.585 45.0236 257.367 43.7095 257.325 42.384H278.812C279.105 39.9348 278.994 37.4544 278.485 35.0405C278.067 33.0781 277.225 31.2297 276.019 29.6235ZM261.036 31.0436C262.431 30.2005 264.041 29.7792 265.672 29.8307C267.305 29.7494 268.918 30.2188 270.25 31.1631C271.434 32.1042 272.28 33.403 272.658 34.8639C272.955 35.9442 273.101 37.06 273.092 38.1799H257.456C257.566 36.9991 257.819 35.8359 258.211 34.7159C258.718 33.2142 259.712 31.9226 261.036 31.0436Z" fill="#9FDAF5"/>
<path d="M301.912 51.2353L300.901 51.414C300.576 51.4715 300.249 51.5111 299.92 51.5324C299.602 51.5531 299.304 51.561 299.028 51.561C298.117 51.5862 297.212 51.4039 296.382 51.028C295.668 50.6918 295.077 50.1441 294.688 49.4598C294.271 48.6875 294.066 47.8196 294.093 46.9433V30.5412H302.476L303.13 25.8041H294.093V16.4474L288.029 18.5801V25.8041H283.45L282.796 30.5412H288.029V48.1868C288.002 49.3635 288.183 50.5356 288.564 51.6498C288.87 52.5318 289.344 53.3466 289.961 54.0489C290.527 54.6742 291.215 55.178 291.982 55.5293C292.769 55.8881 293.597 56.1465 294.449 56.2981C295.292 56.4533 296.148 56.5326 297.005 56.5349C297.64 56.5349 298.264 56.5155 298.879 56.4766C299.494 56.4378 300.059 56.3784 300.574 56.2981C301.088 56.2191 301.575 56.1303 302.03 56.0326C302.486 55.9349 302.872 55.8451 303.19 55.7651L303.547 50.8514C303.315 50.9404 303.076 51.0097 302.833 51.0586C302.555 51.1168 302.248 51.1771 301.912 51.2353Z" fill="#9FDAF5"/>
<path d="M331.907 29.6235C330.766 28.1503 329.26 26.9972 327.537 26.2769C325.622 25.4995 323.57 25.1171 321.502 25.1528C319.42 25.1177 317.353 25.5213 315.438 26.3372C313.696 27.0968 312.143 28.2285 310.889 29.6521C309.598 31.1486 308.627 32.8913 308.036 34.7741C307.358 36.9292 307.027 39.1775 307.055 41.4356C306.972 44.2887 307.573 47.1206 308.808 49.6959C309.939 51.9275 311.764 53.7347 314.011 54.8474C316.648 56.0843 319.541 56.6829 322.455 56.5942C323.856 56.6058 325.257 56.5167 326.645 56.3277C327.806 56.1609 328.95 55.8935 330.065 55.5284C331.169 55.1592 332.243 54.7038 333.275 54.1665L333.692 49.6071C332.938 49.8834 332.175 50.1597 331.402 50.436C330.629 50.7124 329.826 50.9591 328.995 51.1762C328.155 51.3953 327.301 51.5533 326.438 51.6489C325.57 51.7482 324.696 51.798 323.822 51.7979C322.261 51.8231 320.703 51.654 319.184 51.2946C317.958 51.0022 316.825 50.4123 315.885 49.5774C314.935 48.676 314.238 47.5432 313.863 46.2911C313.475 45.0227 313.257 43.7086 313.215 42.3831H334.701C334.994 39.9338 334.884 37.4534 334.375 35.0396C333.956 33.0775 333.114 31.2294 331.907 29.6235ZM316.924 31.0436C318.319 30.2004 319.93 29.779 321.562 29.8307C323.195 29.7495 324.808 30.2189 326.14 31.1631C327.324 32.1043 328.168 33.4031 328.547 34.8639C328.844 35.944 328.99 37.0599 328.981 38.1799H313.345C313.455 36.9991 313.708 35.836 314.099 34.7159C314.607 33.2144 315.601 31.9229 316.924 31.0436Z" fill="#9FDAF5"/>
<path d="M354.558 25.596C353.446 25.8928 352.384 26.3517 351.408 26.9579C350.393 27.5883 349.455 28.3334 348.612 29.1784C348.472 29.3176 348.336 29.4745 348.196 29.6215V25.2101L342.131 26.0982V56.0011H348.196V33.6312C348.647 33.318 349.114 33.0275 349.594 32.7608C350.189 32.4347 350.805 32.1477 351.437 31.9021C352.05 31.664 352.675 31.4568 353.31 31.2805C353.962 31.0992 354.628 30.9704 355.301 30.8956C356.022 30.816 356.748 30.7958 357.472 30.8354L358.185 25.2702C356.966 25.183 355.741 25.2931 354.558 25.596Z" fill="#9FDAF5"/>
</svg>

<svg xmlns="http://www.w3.org/2000/svg" viewBox="0 0 359 70"><path fill="#fff" d="M0 56V14.004h13.78V56H0Zm32.528-35.312L40.453 56h-15.08l-9.464-41.996h8.459a7.965 7.965 0 0 1 5.293 1.922 8.31 8.31 0 0 1 2.867 4.762ZM42.523 56V14.004h13.78V56h-13.78Zm24.189-26.026a8.213 8.213 0 0 1-4.228-1.124 8.336 8.336 0 0 1-3.046-3.046 8.206 8.206 0 0 1-1.125-4.229 8.056 8.056 0 0 1 1.125-4.2 8.437 8.437 0 0 1 3.046-3.016 8.233 8.233 0 0 1 4.228-1.124 8.083 8.083 0 0 1 4.199 1.124 8.504 8.504 0 0 1 3.016 3.016 8.075 8.075 0 0 1 1.125 4.2 8.226 8.226 0 0 1-1.125 4.23 8.4 8.4 0 0 1-3.016 3.045 8.059 8.059 0 0 1-4.201 1.124h.002ZM77.18 56V14.004h13.781V56H77.181Zm31.227-19.046c.039.04.334.524.887 1.449.553.925 1.272 2.108 2.159 3.549a1143.28 1143.28 0 0 1 5.589 9.168A854.89 854.89 0 0 0 120 56h-15.141c-.947-1.538-1.804-2.928-2.573-4.17a382.214 382.214 0 0 1-2.453-4.022 351.934 351.934 0 0 0-2.574-4.2 213.445 213.445 0 0 1-2.188-3.578 62.753 62.753 0 0 0-1.272-2.07 6.119 6.119 0 0 1-1.005-2.958 5.744 5.744 0 0 1 .946-2.84c.236-.394.67-1.095 1.3-2.1.632-1.006 1.371-2.198 2.219-3.579a636.03 636.03 0 0 0 2.574-4.229c.869-1.439 1.686-2.79 2.453-4.052.77-1.26 1.628-2.66 2.573-4.2H120l-11.711 19.106a3.773 3.773 0 0 0-.592 1.894c.039.706.286 1.385.709 1.952h.002Z"/><path fill="#9FDAF5" d="M166.085 45.947 140.816 13.96H136v42.042h5.589V24l25.329 32.003h4.816V13.96h-5.648l-.001 31.986ZM201.284 26.1l-.047 22.176c-.433.251-.865.493-1.288.71-.723.37-1.467.697-2.23.976a11.98 11.98 0 0 1-2.229.592c-.777.122-1.562.182-2.348.178a7.086 7.086 0 0 1-3.508-.77 4.728 4.728 0 0 1-2.051-2.398 10.524 10.524 0 0 1-.685-4.057V25.21l-6.064.888V44.69a16.577 16.577 0 0 0 1.13 6.574 7.54 7.54 0 0 0 3.419 3.82 12.012 12.012 0 0 0 5.677 1.212c1.64.011 3.269-.259 4.817-.798a17.077 17.077 0 0 0 4.28-2.251c.362-.26.719-.535 1.076-.822l-.006 2.567c0 2.96-.694 5.21-2.081 6.75s-3.746 2.31-7.075 2.31c-.912 0-1.844-.04-2.795-.12a22.611 22.611 0 0 1-2.824-.414 31.578 31.578 0 0 1-2.825-.74 33.017 33.017 0 0 1-2.854-1.036l.655 5.27c.793.314 1.625.6 2.496.858a28.43 28.43 0 0 0 2.676.652 30.922 30.922 0 0 0 5.887.561 18.954 18.954 0 0 0 6.331-.976 13.391 13.391 0 0 0 4.667-2.725 11.393 11.393 0 0 0 2.885-4.173 14.27 14.27 0 0 0 .981-5.389l-.06-30.614-6.007.894ZM239.452 26.395a11.606 11.606 0 0 0-5.648-1.242c-1.745 0-3.48.269-5.142.798a19.951 19.951 0 0 0-6.095 3.168V11.297l-6.065.888v43.818h6.065V33.249c.47-.256.951-.501 1.455-.724.842-.37 1.706-.686 2.588-.948a21.202 21.202 0 0 1 2.586-.592 15.412 15.412 0 0 1 2.467-.207c.951-.02 1.898.13 2.795.444a4.77 4.77 0 0 1 1.963 1.332 5.502 5.502 0 0 1 1.128 2.25c.255 1.047.375 2.12.358 3.197v18.001h6.064V36.758a16.34 16.34 0 0 0-1.131-6.573 7.771 7.771 0 0 0-3.388-3.79ZM276.019 29.623a10.799 10.799 0 0 0-4.371-3.346 15.336 15.336 0 0 0-6.034-1.124 14.829 14.829 0 0 0-6.065 1.184 12.96 12.96 0 0 0-4.548 3.315 14.504 14.504 0 0 0-2.855 5.123 21.344 21.344 0 0 0-.98 6.662 17.873 17.873 0 0 0 1.753 8.26 11.599 11.599 0 0 0 5.202 5.151 18.553 18.553 0 0 0 8.444 1.747 29.31 29.31 0 0 0 4.191-.266 20.226 20.226 0 0 0 3.419-.8 22.324 22.324 0 0 0 3.211-1.362l.415-4.559c-.753.276-1.516.553-2.289.829a28.55 28.55 0 0 1-2.408.74c-.839.22-1.694.377-2.556.473-.869.1-1.742.149-2.616.149a18.824 18.824 0 0 1-4.638-.503 7.631 7.631 0 0 1-3.299-1.718 7.48 7.48 0 0 1-2.021-3.286 14.943 14.943 0 0 1-.649-3.908h21.487c.293-2.45.182-4.93-.327-7.343a13.817 13.817 0 0 0-2.466-5.417Zm-14.983 1.42a8.447 8.447 0 0 1 4.636-1.212 7.29 7.29 0 0 1 4.578 1.332 6.955 6.955 0 0 1 2.408 3.7 12.14 12.14 0 0 1 .434 3.317h-15.636c.11-1.18.363-2.344.755-3.464a7.158 7.158 0 0 1 2.825-3.672ZM301.912 51.235l-1.011.179a8.943 8.943 0 0 1-.981.118c-.318.021-.616.029-.892.029a6.011 6.011 0 0 1-2.646-.533 3.82 3.82 0 0 1-1.694-1.568 4.973 4.973 0 0 1-.595-2.517V30.541h8.383l.654-4.737h-9.037v-9.357l-6.064 2.133v7.224h-4.579l-.654 4.737h5.233v17.646a9.993 9.993 0 0 0 .535 3.463 7.22 7.22 0 0 0 1.397 2.399 6.22 6.22 0 0 0 2.021 1.48 10.29 10.29 0 0 0 2.467.77c.843.154 1.699.234 2.556.236.635 0 1.259-.02 1.874-.058a18.69 18.69 0 0 0 1.695-.179 25.18 25.18 0 0 0 1.456-.265c.456-.098.842-.188 1.16-.268l.357-4.914a4.44 4.44 0 0 1-.714.208c-.278.058-.585.118-.921.176ZM331.907 29.623a10.79 10.79 0 0 0-4.37-3.346 15.338 15.338 0 0 0-6.035-1.124 14.836 14.836 0 0 0-6.064 1.184 12.97 12.97 0 0 0-4.549 3.315 14.481 14.481 0 0 0-2.853 5.122 21.316 21.316 0 0 0-.981 6.662 17.899 17.899 0 0 0 1.753 8.26 11.604 11.604 0 0 0 5.203 5.151 18.555 18.555 0 0 0 8.444 1.747 29.267 29.267 0 0 0 4.19-.266 20.237 20.237 0 0 0 3.42-.8 22.197 22.197 0 0 0 3.21-1.361l.417-4.56c-.754.276-1.517.553-2.29.829a28.68 28.68 0 0 1-2.407.74c-.84.22-1.694.377-2.557.473a23 23 0 0 1-2.616.149 18.824 18.824 0 0 1-4.638-.503 7.633 7.633 0 0 1-3.299-1.718 7.495 7.495 0 0 1-2.022-3.286 14.982 14.982 0 0 1-.648-3.908h21.486c.293-2.45.183-4.93-.326-7.343a13.817 13.817 0 0 0-2.468-5.416Zm-14.983 1.42a8.449 8.449 0 0 1 4.638-1.212 7.291 7.291 0 0 1 4.578 1.332 6.96 6.96 0 0 1 2.407 3.7c.297 1.081.443 2.197.434 3.317h-15.636c.11-1.18.363-2.344.754-3.464a7.17 7.17 0 0 1 2.825-3.672ZM354.558 25.596a11.68 11.68 0 0 0-3.15 1.362 15.503 15.503 0 0 0-2.796 2.22c-.14.14-.276.296-.416.444V25.21l-6.065.888v29.903h6.065v-22.37c.451-.313.918-.603 1.398-.87a15.57 15.57 0 0 1 1.843-.859 19.806 19.806 0 0 1 1.873-.622c.652-.18 1.318-.31 1.991-.384.721-.08 1.447-.1 2.171-.06l.713-5.566a11.357 11.357 0 0 0-3.627.326Z"/></svg>
